public/img/botanik_bahce.svg

<svg xmlns="http://www.w3.org/2000/svg" xmlns:xlink="http://www.w3.org/1999/xlink" version="1.1" id="CombinedIcon" x="0px" y="0px" width="32px" height="32px" viewBox="0 0 32 32" enable-background="new 0 0 100 100" xml:space="preserve"><g id="gmarkerbase"><svg xmlns:dc="http://purl.org/dc/elements/1.1/" xmlns:cc="http://creativecommons.org/ns#" xmlns:rdf="http://www.w3.org/1999/02/22-rdf-syntax-ns#" xmlns:svg="http://www.w3.org/2000/svg" xmlns="http://www.w3.org/2000/svg" xmlns:sodipodi="http://sodipodi.sourceforge.net/DTD/sodipodi-0.dtd" xmlns:inkscape="http://www.inkscape.org/namespaces/inkscape" id="markerbase" x="0px" y="0px" width="32px" height="32px" viewBox="0 0 32 32" enable-background="new 0 0 32 32" xml:space="preserve" version="0.48.4 r9939" docname="community.svg" class="injected-svg" style=""><metadata id="metadata19"><rdf:RDF><cc:Work about=""><dc:format>image/svg+xml</dc:format><dc:type resource="http://purl.org/dc/dcmitype/StillImage"/><dc:title/></cc:Work></rdf:RDF></metadata><defs id="defs17"/><sodipodi:namedview pagecolor="#ffffff" bordercolor="#666666" borderopacity="1" objecttolerance="10" gridtolerance="10" guidetolerance="10" pageopacity="0" pageshadow="2" window-width="640" window-height="480" id="namedview15" showgrid="false" zoom="7.375" cx="16" cy="16" window-x="488" window-y="115" window-maximized="0" current-layer="Layer_1"/> <path fill="#f39c12" d="M16,1c8.284,0,15,6.716,15,15s-6.716,15-15,15S1,24.284,1,16S7.716,1,16,1z" id="path3"/> </svg></g><g id="gmarkericon" transform="translate(5,5)"><g transform="scale(0.68)"><svg xmlns:sodipodi="http://sodipodi.sourceforge.net/DTD/sodipodi-0.dtd" xmlns="http://www.w3.org/2000/svg" xmlns:xlink="http://www.w3.org/1999/xlink" version="1.1" x="0px" y="0px" viewBox="0 0 100 100" enable-background="new 0 0 100 100" xml:space="preserve"><g><path fill-rule="evenodd" clip-rule="evenodd" d="M47.3,35.5c-8,1.5-13.2,9.2-11.8,17.1c1.5,8,9.2,13.3,17.1,11.8   c8-1.5,13.3-9.2,11.8-17.1C63,39.3,55.3,34.1,47.3,35.5z" fill="#fff"/><g><path fill-rule="evenodd" clip-rule="evenodd" d="M51.8,26.9c2-4.3,4.6-7.5,7-8.6c-0.9-6.1-3.2-10.4-6.3-10.6    c-2.9-0.2-5.6,3.5-7.3,9.1C47.7,17.6,50.3,21.5,51.8,26.9z" fill="#fff"/><path fill-rule="evenodd" clip-rule="evenodd" d="M26.9,48.2c-4.3-2-7.5-4.6-8.6-6.9c-6.1,0.9-10.4,3.2-10.6,6.3    c-0.2,2.9,3.5,5.6,9.1,7.3C17.6,52.3,21.5,49.7,26.9,48.2z" fill="#fff"/><path fill-rule="evenodd" clip-rule="evenodd" d="M83.2,45.2c-0.8,2.5-4.8,5.1-10.1,6.6c4.3,2,7.5,4.6,8.6,6.9    c6.1-0.9,10.4-3.3,10.6-6.3C92.5,49.6,88.8,46.9,83.2,45.2z" fill="#fff"/><path fill-rule="evenodd" clip-rule="evenodd" d="M69.1,63.2c1.6,2.3,2.7,4.5,3.4,6.5L57.3,54l22.1,4.8l-19.9-7.7L80.6,48L58,47.7    l14.3-9.2c-0.4,0.5-0.9,1-1.4,1.6c4.7-0.4,8.8,0.2,10.9,1.7c4.9-3.8,7.4-8,6.1-10.7c-1.3-2.6-5.9-3.1-11.5-1.7    c0.4,1.9-0.7,4.8-2.8,7.7l-16.1,7.1l12.4-16.7c1.3-0.4,2.5-0.6,3.5-0.5c2.3-5.8,2.4-10.7-0.1-12.3c-2.4-1.6-6.6,0.2-10.8,4.2    c1.8,2,2,6.7,0.6,12.1c2.3-1.6,4.6-2.8,6.6-3.4L54.1,42.7l4.8-22.1l-7.7,19.9L48,19.4L47.7,42l-9.3-14.3c0.5,0.4,1.1,0.9,1.6,1.4    c-0.4-4.7,0.2-8.8,1.7-10.9c-3.8-4.8-8-7.4-10.7-6.1c-2.6,1.3-3.1,5.9-1.8,11.5c1.9-0.4,4.7,0.7,7.7,2.9l7.1,16.1L27.4,30.1    c-0.4-1.3-0.6-2.6-0.5-3.6c-5.7-2.3-10.7-2.4-12.3,0.1c-1.6,2.4,0.2,6.6,4.2,10.8c2-1.8,6.7-2,12-0.6c-1.6-2.3-2.7-4.5-3.4-6.5    l15.2,15.6l-22.1-4.8l19.9,7.7L19.4,52L42,52.3l-14.3,9.2c0.4-0.5,0.9-1,1.4-1.6c-4.7,0.4-8.8-0.2-10.9-1.7    c-4.9,3.8-7.4,8-6.1,10.7c1.3,2.6,5.9,3.1,11.5,1.8c-0.4-1.9,0.7-4.8,2.9-7.7l16.1-7.1L30.1,72.6c-1.3,0.4-2.5,0.6-3.5,0.5    c-2.3,5.8-2.4,10.7,0.1,12.3c2.4,1.6,6.6-0.2,10.8-4.2c-1.8-2-2-6.7-0.7-12.1c-2.3,1.6-4.5,2.8-6.6,3.4L46,57.3l-4.8,22.1    l7.7-19.9L52,80.6L52.3,58l9.3,14.4C61,72,60.5,71.5,60,70.9c0.4,4.8-0.2,8.8-1.7,10.9c3.8,4.8,8,7.4,10.7,6.1    c2.6-1.3,3.1-5.9,1.8-11.5c-1.9,0.4-4.7-0.7-7.7-2.8l-7.1-16.1l16.6,12.4c0.4,1.3,0.6,2.6,0.5,3.6c5.7,2.3,10.7,2.4,12.3-0.1    c1.6-2.4-0.2-6.6-4.2-10.8C79.2,64.3,74.5,64.5,69.1,63.2z" fill="#fff"/><path fill-rule="evenodd" clip-rule="evenodd" d="M48.2,73.1c-2,4.3-4.6,7.5-6.9,8.6c0.9,6.1,3.2,10.4,6.3,10.6    c2.9,0.2,5.6-3.5,7.3-9.1C52.3,82.4,49.7,78.5,48.2,73.1z" fill="#fff"/></g></g></svg></g></g></svg>

<?xml version="1.0" encoding="UTF-8" standalone="no"?>
<svg
   xmlns:dc="http://purl.org/dc/elements/1.1/"
   xmlns:cc="http://creativecommons.org/ns#"
   xmlns:rdf="http://www.w3.org/1999/02/22-rdf-syntax-ns#"
   xmlns:svg="http://www.w3.org/2000/svg"
   xmlns="http://www.w3.org/2000/svg"
   xmlns:sodipodi="http://sodipodi.sourceforge.net/DTD/sodipodi-0.dtd"
   xmlns:inkscape="http://www.inkscape.org/namespaces/inkscape"
   version="1.1"
   id="CombinedIcon"
   x="0px"
   y="0px"
   width="32px"
   height="32px"
   viewBox="0 0 32 32"
   enable-background="new 0 0 100 100"
   xml:space="preserve"
   sodipodi:docname="botanik_bahce.svg"
   inkscape:version="0.92.0 r"><metadata
     id="metadata34" /><defs
     id="defs32" /><sodipodi:namedview
     pagecolor="#ffffff"
     bordercolor="#666666"
     borderopacity="1"
     objecttolerance="10"
     gridtolerance="10"
     guidetolerance="10"
     inkscape:pageopacity="0"
     inkscape:pageshadow="2"
     inkscape:window-width="1920"
     inkscape:window-height="1009"
     id="namedview30"
     showgrid="false"
     inkscape:zoom="14.75"
     inkscape:cx="13.220004"
     inkscape:cy="17.419879"
     inkscape:window-x="0"
     inkscape:window-y="29"
     inkscape:window-maximized="1"
     inkscape:current-layer="CombinedIcon" /><g
     id="gmarkerbase"
     transform="matrix(1.0723164,0,0,1.0723164,-1.1570621,-1.1570621)"><svg
       id="markerbase"
       x="0px"
       y="0px"
       width="32"
       height="32"
       viewBox="0 0 32 32"
       enable-background="new 0 0 32 32"
       xml:space="preserve"
       version="0.48.4 r9939"
       docname="community.svg"
       class="injected-svg"><metadata
         id="metadata19"><rdf:RDF><cc:Work
             about=""><dc:format>image/svg+xml</dc:format><dc:type
               resource="http://purl.org/dc/dcmitype/StillImage"
               rdf:resource="http://purl.org/dc/dcmitype/StillImage" /><dc:title /></cc:Work></rdf:RDF></metadata><defs
         id="defs17" /><sodipodi:namedview
         pagecolor="#ffffff"
         bordercolor="#666666"
         borderopacity="1"
         objecttolerance="10"
         gridtolerance="10"
         guidetolerance="10"
         pageopacity="0"
         pageshadow="2"
         window-width="640"
         window-height="480"
         id="namedview15"
         showgrid="false"
         zoom="7.375"
         cx="16"
         cy="16"
         window-x="488"
         window-y="115"
         window-maximized="0"
         current-layer="Layer_1" /><path
         d="M 16,1 C 24.284,1 31,7.716 31,16 31,24.284 24.284,31 16,31 7.716,31 1,24.284 1,16 1,7.716 7.716,1 16,1 Z"
         id="path3"
         inkscape:connector-curvature="0"
         style="fill:#f39c12" /></svg></g><g
     id="gmarkericon"
     transform="translate(5,5)"><g
       transform="scale(0.68)"
       id="g26"><svg
         version="1.1"
         x="0px"
         y="0px"
         viewBox="0 0 100 100"
         enable-background="new 0 0 100 100"
         xml:space="preserve"
         id="svg24"
         width="100%"
         height="100%"><g
           id="g22"><path
             d="m 47.3,35.5 c -8,1.5 -13.2,9.2 -11.8,17.1 1.5,8 9.2,13.3 17.1,11.8 8,-1.5 13.3,-9.2 11.8,-17.1 C 63,39.3 55.3,34.1 47.3,35.5 Z"
             id="path8"
             inkscape:connector-curvature="0"
             style="clip-rule:evenodd;fill:#ffffff;fill-rule:evenodd" /><g
             id="g20"><path
               d="m 51.8,26.9 c 2,-4.3 4.6,-7.5 7,-8.6 -0.9,-6.1 -3.2,-10.4 -6.3,-10.6 -2.9,-0.2 -5.6,3.5 -7.3,9.1 2.5,0.8 5.1,4.7 6.6,10.1 z"
               id="path10"
               inkscape:connector-curvature="0"
               style="clip-rule:evenodd;fill:#ffffff;fill-rule:evenodd" /><path
               d="m 26.9,48.2 c -4.3,-2 -7.5,-4.6 -8.6,-6.9 -6.1,0.9 -10.4,3.2 -10.6,6.3 -0.2,2.9 3.5,5.6 9.1,7.3 0.8,-2.6 4.7,-5.2 10.1,-6.7 z"
               id="path12"
               inkscape:connector-curvature="0"
               style="clip-rule:evenodd;fill:#ffffff;fill-rule:evenodd" /><path
               d="m 83.2,45.2 c -0.8,2.5 -4.8,5.1 -10.1,6.6 4.3,2 7.5,4.6 8.6,6.9 6.1,-0.9 10.4,-3.3 10.6,-6.3 0.2,-2.8 -3.5,-5.5 -9.1,-7.2 z"
               id="path14"
               inkscape:connector-curvature="0"
               style="clip-rule:evenodd;fill:#ffffff;fill-rule:evenodd" /><path
               d="m 69.1,63.2 c 1.6,2.3 2.7,4.5 3.4,6.5 L 57.3,54 79.4,58.8 59.5,51.1 80.6,48 58,47.7 72.3,38.5 c -0.4,0.5 -0.9,1 -1.4,1.6 4.7,-0.4 8.8,0.2 10.9,1.7 4.9,-3.8 7.4,-8 6.1,-10.7 C 86.6,28.5 82,28 76.4,29.4 c 0.4,1.9 -0.7,4.8 -2.8,7.7 L 57.5,44.2 69.9,27.5 c 1.3,-0.4 2.5,-0.6 3.5,-0.5 2.3,-5.8 2.4,-10.7 -0.1,-12.3 -2.4,-1.6 -6.6,0.2 -10.8,4.2 1.8,2 2,6.7 0.6,12.1 2.3,-1.6 4.6,-2.8 6.6,-3.4 L 54.1,42.7 58.9,20.6 51.2,40.5 48,19.4 47.7,42 38.4,27.7 c 0.5,0.4 1.1,0.9 1.6,1.4 -0.4,-4.7 0.2,-8.8 1.7,-10.9 -3.8,-4.8 -8,-7.4 -10.7,-6.1 -2.6,1.3 -3.1,5.9 -1.8,11.5 1.9,-0.4 4.7,0.7 7.7,2.9 L 44,42.6 27.4,30.1 C 27,28.8 26.8,27.5 26.9,26.5 21.2,24.2 16.2,24.1 14.6,26.6 c -1.6,2.4 0.2,6.6 4.2,10.8 2,-1.8 6.7,-2 12,-0.6 -1.6,-2.3 -2.7,-4.5 -3.4,-6.5 L 42.6,45.9 20.5,41.1 40.4,48.8 19.4,52 42,52.3 27.7,61.5 c 0.4,-0.5 0.9,-1 1.4,-1.6 -4.7,0.4 -8.8,-0.2 -10.9,-1.7 -4.9,3.8 -7.4,8 -6.1,10.7 1.3,2.6 5.9,3.1 11.5,1.8 -0.4,-1.9 0.7,-4.8 2.9,-7.7 L 42.6,55.9 30.1,72.6 c -1.3,0.4 -2.5,0.6 -3.5,0.5 -2.3,5.8 -2.4,10.7 0.1,12.3 2.4,1.6 6.6,-0.2 10.8,-4.2 -1.8,-2 -2,-6.7 -0.7,-12.1 -2.3,1.6 -4.5,2.8 -6.6,3.4 L 46,57.3 41.2,79.4 48.9,59.5 52,80.6 52.3,58 61.6,72.4 C 61,72 60.5,71.5 60,70.9 c 0.4,4.8 -0.2,8.8 -1.7,10.9 3.8,4.8 8,7.4 10.7,6.1 2.6,-1.3 3.1,-5.9 1.8,-11.5 -1.9,0.4 -4.7,-0.7 -7.7,-2.8 L 56,57.5 72.6,69.9 c 0.4,1.3 0.6,2.6 0.5,3.6 5.7,2.3 10.7,2.4 12.3,-0.1 1.6,-2.4 -0.2,-6.6 -4.2,-10.8 -2,1.7 -6.7,1.9 -12.1,0.6 z"
               id="path16"
               inkscape:connector-curvature="0"
               style="clip-rule:evenodd;fill:#ffffff;fill-rule:evenodd" /><path
               d="m 48.2,73.1 c -2,4.3 -4.6,7.5 -6.9,8.6 0.9,6.1 3.2,10.4 6.3,10.6 2.9,0.2 5.6,-3.5 7.3,-9.1 -2.6,-0.8 -5.2,-4.7 -6.7,-10.1 z"
               id="path18"
               inkscape:connector-curvature="0"
               style="clip-rule:evenodd;fill:#ffffff;fill-rule:evenodd" /></g></g></svg></g></g></svg>
